resources/haticons/SVG/nintendogamecube.svg

<!-- Generated by IcoMoon.io -->
<svg version="1.1" xmlns="http://www.w3.org/2000/svg" width="24" height="24" viewBox="0 0 24 24">
<title>nintendogamecube</title>
<path fill="#6a5fbb" d="M6.815 15.128l4.704 2.715v-5.433l-4.706-2.714zM4.79 16.296l6.73 3.883v3.821l-10.040-5.793v-11.59l3.31 1.91zM12 6.146l-4.703 2.718 4.703 2.716 4.705-2.717zM12 3.813l5.66 3.275 3.31-1.91-8.97-5.178-10.027 5.79 3.307 1.907zM19.208 16.296v-3.948l-2.023 1.167v1.614l-4.704 2.715v0.005-5.436l10.039-5.793v11.588l-10.040 5.795v-3.817z"></path>
</svg>

<svg xmlns="http://www.w3.org/2000/svg" width="24" height="24"><path fill="#6a5fbb" d="M6.815 15.128l4.704 2.715V12.41L6.813 9.696zM4.79 16.296l6.73 3.883V24L1.48 18.207V6.617l3.31 1.91zM12 6.146L7.297 8.864 12 11.58l4.705-2.717zm0-2.333l5.66 3.275 3.31-1.91L12 0 1.973 5.79 5.28 7.697zm7.208 12.483v-3.948l-2.023 1.167v1.614l-4.704 2.715v.005-5.436L22.52 6.62v11.588l-10.04 5.795v-3.817z"/></svg>
